JackSchool/img/steps/02.svg

<svg width="44" height="27" viewBox="0 0 44 27" fill="none" xmlns="http://www.w3.org/2000/svg">
<path d="M11.11 26.56C8.94 26.56 7.015 26.0583 5.335 25.055C3.67833 24.0283 2.37167 22.5583 1.415 20.645C0.481667 18.7083 0.015 16.41 0.015 13.75C0.015 11.09 0.481667 8.80333 1.415 6.89C2.37167 4.95333 3.67833 3.48333 5.335 2.48C7.015 1.45333 8.94 0.939999 11.11 0.939999C13.28 0.939999 15.1933 1.45333 16.85 2.48C18.53 3.48333 19.8367 4.95333 20.77 6.89C21.7267 8.80333 22.205 11.09 22.205 13.75C22.205 16.41 21.7267 18.7083 20.77 20.645C19.8367 22.5583 18.53 24.0283 16.85 25.055C15.1933 26.0583 13.28 26.56 11.11 26.56ZM11.11 19.945C12.9767 19.945 13.91 17.88 13.91 13.75C13.91 9.62 12.9767 7.555 11.11 7.555C9.24333 7.555 8.31 9.62 8.31 13.75C8.31 17.88 9.24333 19.945 11.11 19.945ZM43.5066 19.595V26H23.8716V20.925L32.7266 12.735C33.4966 12.0117 34.0099 11.3933 34.2666 10.88C34.5233 10.3667 34.6516 9.865 34.6516 9.375C34.6516 8.76833 34.4416 8.30167 34.0216 7.975C33.6249 7.625 33.0416 7.45 32.2716 7.45C31.5249 7.45 30.8249 7.64833 30.1716 8.045C29.5183 8.44167 29.0166 9.00167 28.6666 9.725L22.4366 6.61C23.3699 4.86 24.7349 3.48333 26.5316 2.48C28.3283 1.45333 30.4983 0.939999 33.0416 0.939999C34.9783 0.939999 36.6933 1.255 38.1866 1.885C39.6799 2.515 40.8466 3.41333 41.6866 4.58C42.5266 5.74667 42.9466 7.08833 42.9466 8.605C42.9466 9.95833 42.6549 11.23 42.0716 12.42C41.5116 13.5867 40.4033 14.9167 38.7466 16.41L35.2466 19.595H43.5066Z" fill="#FFC601"/>
</svg>

<svg width="44" height="27" fill="none" xmlns="http://www.w3.org/2000/svg"><path d="M11.11 26.56c-2.17 0-4.095-.502-5.775-1.505-1.657-1.027-2.963-2.497-3.92-4.41-.933-1.937-1.4-4.235-1.4-6.895 0-2.66.467-4.947 1.4-6.86.957-1.937 2.263-3.407 3.92-4.41C7.015 1.453 8.94.94 11.11.94c2.17 0 4.083.513 5.74 1.54 1.68 1.003 2.987 2.473 3.92 4.41.957 1.913 1.435 4.2 1.435 6.86s-.478 4.958-1.435 6.895c-.933 1.913-2.24 3.383-3.92 4.41-1.657 1.003-3.57 1.505-5.74 1.505zm0-6.615c1.867 0 2.8-2.065 2.8-6.195 0-4.13-.933-6.195-2.8-6.195-1.867 0-2.8 2.065-2.8 6.195 0 4.13.933 6.195 2.8 6.195zm32.397-.35V26H23.872v-5.075l8.855-8.19c.77-.723 1.283-1.342 1.54-1.855.256-.513.385-1.015.385-1.505 0-.607-.21-1.073-.63-1.4-.397-.35-.98-.525-1.75-.525-.747 0-1.447.198-2.1.595a3.903 3.903 0 00-1.505 1.68l-6.23-3.115c.933-1.75 2.298-3.127 4.095-4.13 1.796-1.027 3.966-1.54 6.51-1.54 1.936 0 3.651.315 5.145.945 1.493.63 2.66 1.528 3.5 2.695.84 1.167 1.26 2.508 1.26 4.025a8.553 8.553 0 01-.875 3.815c-.56 1.167-1.669 2.497-3.325 3.99l-3.5 3.185h8.26z" fill="#FFC601"/></svg>
